svg/transport/pinwheel_line.svg

<?xml version="1.0" encoding="UTF-8"?>
<svg width="24px" height="24px" viewBox="0 0 24 24" version="1.1" xmlns="http://www.w3.org/2000/svg" xmlns:xlink="http://www.w3.org/1999/xlink">
    <title>pinwheel_line</title>
    <g id="Icon" stroke="none" stroke-width="1" fill="none" fill-rule="evenodd">
        <g id="Transport" transform="translate(-912.000000, -192.000000)">
            <g id="pinwheel_line" transform="translate(912.000000, 192.000000)">
                <path d="M24,0 L24,24 L0,24 L0,0 L24,0 Z M12.5935,23.2578 L12.5819,23.2595 L12.5109,23.295 L12.4919,23.2987 L12.4767,23.295 L12.4057,23.2595 C12.3958,23.2564 12.387,23.259 12.3821,23.2649 L12.378,23.2758 L12.3609,23.7031 L12.3659,23.7235 L12.3769,23.7357 L12.4805,23.8097 L12.4953,23.8136 L12.5071,23.8097 L12.6107,23.7357 L12.6233,23.7197 L12.6267,23.7031 L12.6096,23.2758 C12.6076,23.2657 12.601,23.2593 12.5935,23.2578 Z M12.8584,23.1453 L12.8445,23.1473 L12.6598,23.2397 L12.6499,23.2499 L12.6472,23.2611 L12.6651,23.6906 L12.6699,23.7034 L12.6784,23.7105 L12.8793,23.8032 C12.8914,23.8069 12.9022,23.803 12.9078,23.7952 L12.9118,23.7812 L12.8777,23.1665 C12.8753,23.1546 12.8674,23.147 12.8584,23.1453 Z M12.143,23.1473 C12.1332,23.1424 12.1222,23.1453 12.1156,23.1526 L12.1099,23.1665 L12.0758,23.7812 C12.0751,23.7927 12.0828,23.8019 12.0926,23.8046 L12.1083,23.8032 L12.3092,23.7105 L12.3186,23.7024 L12.3225,23.6906 L12.3404,23.2611 L12.3372,23.2485 L12.3278,23.2397 L12.143,23.1473 Z" id="MingCute" fill-rule="nonzero"></path>
                <path d="M12.5549,2.16782 C12.833,2.35331 13,2.66548 13,2.99976 L13,5.80688 C13.2436,5.77469 13.4879,5.7482 13.7324,5.7261 C14.7769,5.63171 16.2369,5.60624 17.3792,6.07442 C18.8519,6.67796 19.9943,8.17698 20.7145,9.32339 C21.174,10.0549 21.5897,10.8168 21.9229,11.6146 C22.0513,11.9232 22.0174,12.2765 21.8319,12.5546 C21.6464,12.8327 21.3343,12.9997 21,12.9997 L18.1929,12.9997 C18.2251,13.2433 18.2516,13.4877 18.2737,13.7322 C18.368,14.7766 18.3935,16.2366 17.9253,17.379 C17.3218,18.8516 15.8228,19.994 14.6764,20.7142 C13.9449,21.1737 13.1829,21.5895 12.3852,21.9226 C12.0766,22.0511 11.7233,22.0172 11.4452,21.8317 C11.1671,21.6462 11,21.334 11,20.9998 L11,18.1926 C10.7564,18.2248 10.5121,18.2513 10.2675,18.2734 C9.22312,18.3678 7.76314,18.3933 6.62078,17.9251 C5.14814,17.3216 4.00571,15.8225 3.28555,14.6761 C2.82603,13.9446 2.41027,13.1827 2.07714,12.3849 C1.94871,12.0763 1.98259,11.723 2.16807,11.4449 C2.35355,11.1668 2.66572,10.9998 3,10.9998 L5.80716,10.9998 C5.77496,10.7562 5.74848,10.5118 5.72638,10.2673 C5.63199,9.22287 5.60651,7.7629 6.07469,6.62053 C6.67823,5.1479 8.17726,4.00546 9.32366,3.2853 C10.0551,2.82579 10.8171,2.41002 11.6149,2.0769 C11.9235,1.94846 12.2768,1.98234 12.5549,2.16782 Z M16.169,12.9997 L13,12.9997 L13,19.3846 C13.1958,19.2744 13.4022,19.1527 13.6125,19.0206 C14.729,18.3192 15.73,17.4617 16.0747,16.6205 C16.347,15.9561 16.3725,14.9161 16.2818,13.9122 C16.26655,13.74345 16.24855,13.581 16.2292625,13.4279 L16.169,12.9997 Z M11,12.9998 L4.61511,12.9998 C4.72532,13.1956 4.84702,13.402 4.97913,13.6122 C5.68051,14.7288 6.53808,15.7297 7.37924,16.0745 C8.04364,16.3468 9.08367,16.3723 10.0875,16.2815 C10.4251,16.251 10.7373,16.2096 11,16.1688 L11,12.9998 Z M11,4.61487 L10.8009148,4.72886963 L10.8009148,4.72886963 L10.3875,4.97888 L10.3875,4.97888 C9.27102,5.68027 8.27004,6.53783 7.9253,7.379 C7.65301,8.0434 7.62753,9.08343 7.71826,10.0873 C7.74876,10.4248 7.79019,10.7371 7.83103,10.9998 L11,10.9998 L11,4.61487 Z M13.9125,7.71798 C13.7437,7.733235 13.58125,7.7512175 13.4281625,7.77049125 L13,7.83075 L13,7.83075 L13,10.9997 L19.3849,10.9997 C19.2747,10.804 19.153,10.5976 19.0209,10.3873 C18.3195,9.27074 17.4619,8.26977 16.6208,7.92503 C15.9564,7.65273 14.9163,7.62726 13.9125,7.71798 Z" id="形状" fill="#09244B"></path>
            </g>
        </g>
    </g>
</svg>

<svg xmlns="http://www.w3.org/2000/svg" width="24" height="24"><g fill="none" fill-rule="evenodd"><path d="M24 0v24H0V0h24ZM12.594 23.258l-.012.002-.071.035-.02.004-.014-.004-.071-.036c-.01-.003-.019 0-.024.006l-.004.01-.017.428.005.02.01.013.104.074.015.004.012-.004.104-.074.012-.016.004-.017-.017-.427c-.002-.01-.009-.017-.016-.018Zm.264-.113-.014.002-.184.093-.01.01-.003.011.018.43.005.012.008.008.201.092c.012.004.023 0 .029-.008l.004-.014-.034-.614c-.003-.012-.01-.02-.02-.022Zm-.715.002a.023.023 0 0 0-.027.006l-.006.014-.034.614c0 .012.007.02.017.024l.015-.002.201-.093.01-.008.003-.011.018-.43-.003-.012-.01-.01-.184-.092Z"/><path fill="#09244B" d="M12.555 2.168A1 1 0 0 1 13 3v2.807c.244-.032.488-.059.732-.08 1.045-.095 2.505-.12 3.647.347 1.473.604 2.615 2.103 3.335 3.25.46.73.876 1.493 1.209 2.29A1.002 1.002 0 0 1 21 13h-2.807c.032.243.059.488.08.732.095 1.045.12 2.505-.348 3.647-.603 1.473-2.102 2.615-3.249 3.335-.731.46-1.493.876-2.29 1.209A1.001 1.001 0 0 1 11 21v-2.807a17.84 17.84 0 0 1-.732.08c-1.045.095-2.505.12-3.647-.348-1.473-.603-2.615-2.103-3.335-3.249a15.698 15.698 0 0 1-1.209-2.291A1.002 1.002 0 0 1 3 11h2.807a17.859 17.859 0 0 1-.08-.733c-.095-1.044-.12-2.504.348-3.646.603-1.473 2.102-2.616 3.249-3.336.731-.46 1.493-.875 2.29-1.208.31-.129.663-.095.94.09ZM16.169 13H13v6.385c.196-.11.402-.232.613-.364 1.116-.702 2.117-1.56 2.462-2.4.272-.665.297-1.705.207-2.709a13.867 13.867 0 0 0-.053-.484L16.17 13ZM11 13H4.615c.11.196.232.402.364.612.702 1.117 1.56 2.118 2.4 2.463.665.272 1.705.297 2.709.207.337-.031.65-.072.912-.113v-3.17Zm0-8.385-.2.114-.413.25c-1.116.701-2.117 1.559-2.462 2.4-.272.664-.297 1.704-.207 2.708.03.338.072.65.113.913H11V4.615Zm2.912 3.103a13.9 13.9 0 0 0-.484.052L13 7.83V11h6.385c-.11-.196-.232-.402-.364-.613-.701-1.116-1.56-2.117-2.4-2.462-.665-.272-1.705-.298-2.708-.207Z"/></g></svg>
